!!!COM: Palestrina, Giovanni Perluigi da
!!!OPR: Missa Papae Marcelli
!!!OTL: Agnus I
**kern	**kern	**kern	**kern	**kern	**kern
*Ibass	*Ibass	*Itenor	*Itenor	*Icalto	*Icant
!Bassus 2	!Bassus 1	!Tenor 2	!Tenor 1	!Altus	!Cantus
*clefF4	*clefF4	*clefGv2	*clefGv2	*clefG2	*clefG2
*k[]	*k[]	*k[]	*k[]	*k[]	*k[]
*C:ion	*C:ion	*C:ion	*C:ion	*C:ion	*C:ion
*M4/2	*M4/2	*M4/2	*M4/2	*M4/2	*M4/2
=1	=1	=1	=1	=1	=1
0r	0r	0r	0d	0r	1r
.	.	.	.	.	[1dd
=2	=2	=2	=2	=2	=2
0r	0G	0r	1d	0r	1dd]
.	.	.	2.g	.	1dd
.	.	.	4f	.	.
=3	=3	=3	=3	=3	=3
0r	1G	0r	2e	0g	2.gg
.	.	.	2d	.	.
.	.	.	.	.	4ff
.	[1c	.	[1e	.	4ee
.	.	.	.	.	4dd
.	.	.	.	.	2ee
=4	=4	=4	=4	=4	=4
0r	2c]	0r	2e]	1g	2cc
.	2B	.	2d	.	2dd
.	2.A	.	4c	[1cc	[1ee
.	.	.	4A	.	.
.	.	.	[2a	.	.
.	4B	.	.	.	.
=5	=5	=5	=5	=5	=5
1r	1c	0r	4a]	2cc]	1ee]
.	.	.	4g	.	.
.	.	.	1g	2b	.
[1D	[1d	.	.	2.a	1dd
.	.	.	4f	.	.
.	.	.	4e	4g	.
=6	=6	=6	=6	=6	=6
1D]	0d]	1r	2f#	2a	2r
.	.	.	2g	1g	2.dd
1D	.	[1d	2a	.	.
.	.	.	.	.	4cc
.	.	.	[2d	2f#	2a
=7	=7	=7	=7	=7	=7
1.G	0r	1d]	4d]	2g	2.b
.	.	.	4c	.	.
.	.	.	1B	4G	.
.	.	.	.	4A	4cc
.	.	1d	.	4B	1dd
.	.	.	.	4c	.
2F	.	.	2A	2d	.
=8	=8	=8	=8	=8	=8
2.E	0r	1.g	2.G	4c	2.ee
.	.	.	.	4B	.
.	.	.	.	2e	.
4F	.	.	4A	.	4dd
1G	.	.	1B	1d	4b
.	.	.	.	.	4cc
.	.	2f	.	.	[2dd
=9	=9	=9	=9	=9	=9
1.A	1r	2.e	4c	1a	2dd]
.	.	.	4A	.	.
.	.	.	2.a	.	4cc
.	.	4d	.	.	4b
.	[1A	2e	.	2r	2cc#
.	.	.	4g	.	.
2D	.	[2d	2f	2a	2dd
=10	=10	=10	=10	=10	=10
1A	1A]	2d]	0e	2a	1ee
.	.	4c	.	2.a	.
.	.	4B	.	.	.
1r	1A	1c#	.	.	[1a
.	.	.	.	4g	.
.	.	.	.	2e	.
=11	=11	=11	=11	=11	=11
0D	1.d	4d	1.d	4f	1a]
.	.	4e	.	4e	.
.	.	4f	.	4d	.
.	.	4g	.	4e	.
.	.	2a	.	4f	1a
.	.	.	.	4g	.
.	2c	2A	2e	[2a	.
=12	=12	=12	=12	=12	=12
0D	1B	2r	2f#	2a]	0dd
.	.	1d	2g	1g	.
.	1A	.	2a	.	.
.	.	2d	2A	2f#	.
=13	=13	=13	=13	=13	=13
1.G	2.G	2.d	2B	0g	2.b
.	.	.	1d	.	.
.	4A	4c	.	.	4cc
.	2B	4B	.	.	4dd
.	.	4G	.	.	4b
2C	2c	[2g	2c	.	[2ee
=14	=14	=14	=14	=14	=14
2.E	0G	4g]	4B	[0g	4ee]
.	.	4f	4G	.	4dd
.	.	2e	2.g	.	1cc
4F	.	.	.	.	.
1G	.	1d	.	.	.
.	.	.	4f	.	.
.	.	.	2d	.	2b
=15	=15	=15	=15	=15	=15
0C	1r	2c	0e	1g]	1cc
.	.	2g	.	.	.
.	1c	1g	.	1r	2r
.	.	.	.	.	2ee
=16	=16	=16	=16	=16	=16
0r	1c	2e	2r	1r	1ee
.	.	2c	2g	.	.
.	2B	2d	1g	2r	2dd
.	[2c	4c	.	2g	[2ee
.	.	4d	.	.	.
=17	=17	=17	=17	=17	=17
0r	4c]	4e	0e	1g	4ee]
.	4B	4f	.	.	4dd
.	2G	2g	.	.	2b
.	1A	2.c	.	2e	1cc
.	.	.	.	2a	.
.	.	4d	.	.	.
=18	=18	=18	=18	=18	=18
0r	2E	2e	0r	2g	2b
.	2.A	1c	.	2e	1a
.	.	.	.	2f	.
.	4G	.	.	.	.
.	2E	2B	.	[2e	2g#
=19	=19	=19	=19	=19	=19
1r	1F	2.A	1r	2e]	1a
.	.	.	.	2d	.
.	.	4B	.	.	.
2r	2C	1c	2r	1e	[1g
2c	[2C	.	2e	.	.
=20	=20	=20	=20	=20	=20
1c	4C]	1G	1e	1g	1g]
.	4D	.	.	.	.
.	4E	.	.	.	.
.	4F	.	.	.	.
2B	2G	2r	2d	1g	1r
[2c	2C	2g	[2e	.	.
=21	=21	=21	=21	=21	=21
4c]	1C	1g	4e]	[0e	1cc
4B	.	.	4d	.	.
2G	.	.	4c	.	.
.	.	.	4B	.	.
1A	1r	2e	2c	.	1cc
.	.	2a	2A	.	.
=22	=22	=22	=22	=22	=22
2E	0r	2g	2B	1e]	2b
2.A	.	2e	2A	.	2.cc
.	.	2f	2c	1r	.
4G	.	.	.	.	4b
2E	.	[2e	2B	.	2g
=23	=23	=23	=23	=23	=23
1F	0r	2e]	2.A	1r	2a
.	.	2d	.	.	2a
.	.	.	4B	.	.
[1C	.	2.e	[1c	2r	1g
.	.	.	.	2g	.
.	.	4d	.	.	.
=24	=24	=24	=24	=24	=24
1C]	2r	4c	1c]	1g	1e
.	.	4d	.	.	.
.	2c	4e	.	.	.
.	.	4f	.	.	.
1C	1c	1g	1r	1e	2r
.	.	.	.	.	2cc
=25	=25	=25	=25	=25	=25
1F	1A	2.f	2r	1a	2cc
.	.	.	2f	.	1a
.	.	4g	.	.	.
1D	1d	1a	1f	2f	.
.	.	.	.	[2d	[2dd
=26	=26	=26	=26	=26	=26
2.G	1B	1g	1d	2d]	2dd]
.	.	.	.	2.g	1b
4F	.	.	.	.	.
1E	2G	1r	1g	.	.
.	.	.	.	4f	.
.	[2c	.	.	4e	[2g
.	.	.	.	4d	.
=27	=27	=27	=27	=27	=27
1C	4c]	0r	1e	4e	2g]
.	4B	.	.	4f#	.
.	4A	.	.	1g	1cc
.	4G	.	.	.	.
1r	1A	.	1c	.	.
.	.	.	.	2f#	4b
.	.	.	.	.	4a
=28	=28	=28	=28	=28	=28
0r	0G	2r	2d	1g	2b
.	.	2g	2.c	.	2cc
.	.	1g	.	2r	1dd
.	.	.	8B	.	.
.	.	.	8A	.	.
.	.	.	2B	2g	.
=29	=29	=29	=29	=29	=29
2r	1C	2.e	2c	1g	1ee
2c	.	.	2e	.	.
.	.	4f	.	.	.
1c	2r	2g	2e	2e	1cc
.	2F	[2a	2A	[2cc	.
=30	=30	=30	=30	=30	=30
1A	1F	2a]	1a	2cc]	2r
.	.	1f	.	1a	2ff
1d	1D	.	4f	.	1ff
.	.	.	4g	.	.
.	.	[2d	4a	2a	.
.	.	.	4f	.	.
=31	=31	=31	=31	=31	=31
1B	1G	2d]	2g	1.b	1dd
.	.	1g	2d	.	.
1G	1E	.	2.e	.	1gg
.	.	[2e	.	[2g	.
.	.	.	4f	.	.
=32	=32	=32	=32	=32	=32
2.c	1C	4e]	2g	2g]	1ee
.	.	4f	.	.	.
.	.	2g	2e	2.cc	.
4B	.	.	.	.	.
4A	[1F	1a	1f	.	1cc
4G	.	.	.	4b	.
[2A	.	.	.	4a	.
.	.	.	.	4g	.
=33	=33	=33	=33	=33	=33
2A]	0F]	0f	[0c	0a	2.ff
2F	.	.	.	.	.
.	.	.	.	.	4ee
2.A	.	.	.	.	2cc
.	.	.	.	.	2dd
4B	.	.	.	.	.
=34	=34	=34	=34	=34	=34
1c	1C	0e	0c]	2g	1ee
.	.	.	.	1g	.
[1C	2r	.	.	.	2r
.	[2c	.	.	2g	[2ee
=35	=35	=35	=35	=35	=35
0C]	2c]	0r	2r	1g	2ee]
.	2c	.	1g	.	2ee
.	1c	.	.	2c	1ee
.	.	.	2g	[2cc	.
=36	=36	=36	=36	=36	=36
0r	1G	0r	1g	2cc]	1dd
.	.	.	.	2b	.
.	2.c	.	1e	2a	2.ee
.	.	.	.	2g	.
.	4B	.	.	.	4dd
=37	=37	=37	=37	=37	=37
0r	2A	2r	1e	2a	2cc
.	2G#	1e	.	2.b	2b
.	1A	.	1c	.	2cc
.	.	.	.	4a	.
.	.	2e	.	[2a	2a
=38	=38	=38	=38	=38	=38
1r	1E	1e	2r	2a]	1b
.	.	.	1e	2g#	.
2r	1A	1c	.	1a	1a
[2A	.	.	2e	.	.
=39	=39	=39	=39	=39	=39
2A]	0r	2A	1e	1r	2r
2A	.	1c	.	.	1ee
1A	.	.	2A	[1e	.
.	.	4B	[2a	.	2ee
.	.	4A	.	.	.
=40	=40	=40	=40	=40	=40
1E	0r	1B	2a]	2e]	1ee
.	.	.	2g#	2e	.
2.A	.	2.A	2a	2e	1cc
.	.	.	2e	2A	.
4G	.	4B	.	.	.
=41	=41	=41	=41	=41	=41
2F	1r	0c	2f	2a	2r
2E	.	.	2.g	2g	1cc
1F	2r	.	.	1a	.
.	.	.	4f	.	.
.	[2c	.	[2f	.	2cc
=42	=42	=42	=42	=42	=42
0C	2c]	2r	2f]	1g	1cc
.	2c	1g	4e	.	.
.	.	.	4d	.	.
.	1c	.	1e	1r	2g
.	.	2g	.	.	[2cc
=43	=43	=43	=43	=43	=43
0r	1G	1g	1d	2r	2cc]
.	.	.	.	2d	2b
.	2.c	1e	1c	2e	2a
.	.	.	.	[2c	2g
.	4B	.	.	.	.
=44	=44	=44	=44	=44	=44
0r	2A	2f#	2r	2c]	2a
.	2G	2g	1g	2B	2.dd
.	1A	2e	.	2c	.
.	.	.	.	.	4cc
.	.	4d	2f#	2c	[2cc
.	.	4c	.	.	.
=45	=45	=45	=45	=45	=45
1r	1G	1d	1g	2r	2cc]
.	.	.	.	1g	2b
2r	[1C	2c	1e	.	1cc
[2c	.	[2e	.	2g	.
=46	=46	=46	=46	=46	=46
2c]	0C]	2e]	1c	1g	2r
2c	.	2e	.	.	1gg
1c	.	1e	1g	2c	.
.	.	.	.	[2cc	2gg
=47	=47	=47	=47	=47	=47
1G	1r	1d	2r	2cc]	1gg
.	.	.	1g	2b	.
2.c	2r	2e	.	2cc	2.ee
.	[2c	2c	2e	2g	.
4B	.	.	.	.	4dd
=48	=48	=48	=48	=48	=48
2A	2c]	2r	2f#	2a	4cc
.	.	.	.	.	4a
2G	2B	1g	2g	2d	2.dd
1A	2c	.	2e	1r	.
.	.	.	.	.	4cc
.	2A	2f#	4d	.	[2cc
.	.	.	4c	.	.
=49	=49	=49	=49	=49	=49
0G	1B	1g	0d	2r	2cc]
.	.	.	.	1g	4b
.	.	.	.	.	4a
.	1G	1d	.	.	1b
.	.	.	.	2g	.
=50	=50	=50	=50	=50	=50
[0C	2r	2.e	[0c	1g	0cc
.	1c	.	.	.	.
.	.	4f	.	.	.
.	.	2g	.	2e	.
.	2c	[2f	.	2a	.
=51	=51	=51	=51	=51	=51
1C]	1c	2f]	1c_	1g	2r
.	.	2e	.	.	1cc
[1F	1A	2.f	1c_	2.a	.
.	.	.	.	.	2cc
.	.	4e	.	4g	.
=52	=52	=52	=52	=52	=52
2F]	2.F	4f	0c]	4a	1cc
.	.	4g	.	4b	.
2F	.	2.a	.	2.cc	.
.	4G	.	.	.	.
2F	4A	.	.	.	1a
.	4B	4g	.	4b	.
2F	2c	4f	.	4a	.
.	.	4e	.	4g	.
=53	=53	=53	=53	=53	=53
0F	1A	0f	[0c	0a	1.cc
.	1F	.	.	.	.
.	.	.	.	.	2dd
=54	=54	=54	=54	=54	=54
0C	0G	0e	0c]	0g	0ee
==	==	==	==	==	==
*-	*-	*-	*-	*-	*-
!!!CDT: 1525/^1526/-1594/2/2
!!!OCY: Italia
!!!AGN: Mass (Free)
!!!AST: renaissance, vocal
!!!ASW: Chanson 1533 (Lupi or Cadéac)
!!!PWK: Masses, Book 2
!!!RNB: Cadence finals: G
!!!YOR: Le Opere Complete, v. 4, p. 167
!!!YOO: Rome, Italy: Fratelli Scalera
!!!END: 1992//
!!!EED: John Miller
!!!YEC: Copyright 2000, John Miller
!!!YEN: United States of America
!!!YEM: Rights to all derivative electronic formats reserved.
!!!YEM: Refer to licensing agreement for further details.
!!!YEM: This file must be accompanied by the licensing agreement.
!!!YEM: A copy of the licensing agreement may be found at http://www.music-cog.ohio-state.edu/HumdrumDatabases/Palestrina/license.txt
!!!EMD: converted to Humdrum by Bret Aarden
